X: 10125
T: Dillon Brown
R: reel
M: 4/4
K: Gmajor
BGAG EGDG|BGAB cedc|BGAG EGDE|GBAG EG~G2|
GBAG EGDG|BGAB cedc|BGAG EGDE|GBAG EG~G2||
~B3d edgd|edgd eggd|~B3d edgd|cABG EG~G2|
~B3d edgd|edgd egga|bage dgBd|cABG EG~G2||

